X: 466
T: Sibao zhuzhu
L: 1/16
M: 2/4
K: Bb
c'2 f' f' f' d'2 c' [I:setbarnb 1]| 
f' d'2 c'b4 | 
b c'2 d' c' c'2 b | 
c' a2 gf4 | 
d f2 g b b2 g | 
d f2 gb4 | 
b c'2 f' c' b2 g | 
d f2 g2< b2 c' | 
f g2 dc4 |]

@@@ Tune index: 9340
